!!!OTL@@FUR: Oj cd buino l'ago frescjo
!!!OTL@IT: O che buona l'acqua fresca
!!!OTL@EN: The water is so good
**kern
*clefG2
*k[b-]
*F:
*M2/4
*MM60
*>[A,A]
*>A
8c
8c
=1
4.f
8a
=2
4.g
8e
=3
8d
8c
8g
8e
=4
8d
[4.c
=5
4c]
8c
8c
=6
4.f
8a
=7
4.g
8e
=8
8d
8c
8g
8e
=9
8d
[4.c
=10
4c]
8a
8b-
=11
4.cc
8dd
=12
4.cc
8b-
=13
8b-
8a
8cc
8b-
=14
8a
[4.g
=15
4g]
8a
8b-
=16
4.cc
8dd
=17
4.cc
8b-
=18
8b-
8a
8cc
8b-
=19
8a
8g
8b-
8a
=20
[2f
=21
4f]
==:|!
*-
!!!ARE: Friuli
!!!ENC: Kelly Leistikow
!!!END: 2002/03/07
!!!ref: @{OTL@@FUR}/@{OTL@EN}
